X:1
T:Title
%%score ( 1 2 3 ) { 4 | ( 5 6 ) }
L:1/8
Q:1/4=107
M:4/4
K:Ab
V:1 treble nm="Grand Piano, Soprano"
V:2 treble 
V:3 treble 
V:4 bass nm="Choir Pad, St. Luke, Johann F. Lampe"
V:5 bass 
V:6 bass 
V:1
 [CF]2 [B,E]2 [B,D]2 [A,C]2 | z4 F2 z2 | [Cc]2 [Ec]2 [DB]2 [CA]2 | [FB]2 [EA]2 [DG]2 [CA]2 | %4
w: By~Johann~Friedrich~Lampe,~1746 * * *||||
 [Ec]2 [Ee]2 [Ed]2 [Ec]2 | [Ac]2 [FB]2 [FA]2 [EG]2 | [EG]2 [EA]2 [DF]2 [Cc]2 | %7
w: |||
 [FB]2 [FA]2 [=EG]2 F2- | F6 z2 |] %9
w: ||
V:2
 x8 | [CA]2 G2 z B, [C=E]2 | x8 | x8 | x8 | x8 | x8 | x8 | x8 |] %9
V:3
 x8 | z2 .C4 z2 | x8 | x8 | x8 | x8 | x8 | x8 | x8 |] %9
V:4
 A,2 G,2 E,2 E,2 | F,2 G,2 A,F, G,2 | A,2 A,2 G,2 A,2 | D2 C2 B,2 A,2 | A,2 B,2 G,2 A,2 | %5
 E2 .D4 B,2 | A,2 A,2 A,2 F,2 | D2 C2 B,2 A,2- | A,6 z2 |] %9
V:5
 F,,2 G,,2 G,,2 A,,2 | z2 E,2 D,2 C,2 | A,,2 C,2 E,2 F,2 | D,2 E,2 E,2 A,,2 | z2 G,2 E,2 z2 | %5
 C,2 D,2 z C E,2 | D,2 C,2 D,2 A,,2 | B,,2 C,2 C,2 F,2- | F,6 z2 |] %9
V:6
 x8 | x8 | x8 | x8 | x8 | z4 B,,2 z2 | x8 | x8 | x8 |] %9

